symbolic/status/network-cellular-gprs-symbolic.svg

<svg xmlns="http://www.w3.org/2000/svg" width="16" height="16"><path d="M3 1c-1.108 0-2 .892-2 2v10c0 1.108.892 2 2 2h10c1.108 0 2-.892 2-2V3c0-1.108-.892-2-2-2H3zm3 2h4c2 0 2 2 2 2v1h-2V5H6v6h4v-1H8V8h4v3s0 2-2 2H6s-2 0-2-2V5c0-2 2-2 2-2z" fill="#f8f8f2"/></svg>

<svg xmlns="http://www.w3.org/2000/svg" width="16" height="16" version="1.1">
 <path style="fill:#dfdfdf" d="M 3 1 C 1.892 1 1 1.892 1 3 L 1 13 C 1 14.108 1.892 15 3 15 L 13 15 C 14.108 15 15 14.108 15 13 L 15 3 C 15 1.892 14.108 1 13 1 L 3 1 z M 6 3 L 10 3 C 12 3 12 5 12 5 L 12 6 L 10 6 L 10 5 L 6 5 L 6 11 L 10 11 L 10 10 L 8 10 L 8 8 L 12 8 L 12 11 C 12 11 12 13 10 13 L 6 13 C 6 13 4 13 4 11 L 4 5 C 4 3 6 3 6 3 z"/>
</svg>
